flaticon/stationery/highlighter.svg

<svg xmlns="http://www.w3.org/2000/svg" width="32" height="32" viewBox="0 0 24 24">
    <path d="M 22.695312 1.347656 C 20.40625 -0.890625 17.769531 0.121094 16.765625 1.082031 L 4.691406 11.621094 C 4.589844 11.714844 4.527344 11.839844 4.519531 11.980469 L 2.539062 17.972656 L 0 20.613281 L 5.023438 24 L 6.703125 22.253906 L 12.457031 20.203125 C 12.59375 20.191406 12.722656 20.125 12.8125 20.015625 L 22.953125 7.464844 C 24.417969 5.652344 24.359375 2.972656 22.695312 1.347656 Z M 4.886719 22.683594 L 1.5625 20.445312 L 2.984375 18.96875 L 4.523438 20.570312 L 5.722656 21.816406 Z M 6.558594 21.230469 L 3.835938 18.398438 L 3.558594 18.109375 L 5.234375 13.027344 L 11.449219 19.484375 Z M 22.171875 6.828125 L 12.386719 18.933594 L 5.753906 12.039062 L 17.425781 1.847656 C 18.109375 1.132812 20.25 0.320312 21.972656 2.050781 C 23.226562 3.316406 23.292969 5.433594 22.171875 6.828125 Z M 22.171875 6.828125"/>
</svg>

<svg xmlns="http://www.w3.org/2000/svg" width="32" height="32" viewBox="0 0 24 24">
    <path d="M22.695 1.348C20.406-.891 17.77.12 16.765 1.082L4.692 11.622a.524.524 0 0 0-.171.358l-1.98 5.993L0 20.613 5.023 24l1.68-1.746 5.754-2.05a.518.518 0 0 0 .355-.188L22.953 7.465c1.465-1.813 1.406-4.492-.258-6.117zM4.887 22.684l-3.324-2.239 1.421-1.476 1.54 1.601 1.199 1.246zm1.672-1.454l-2.723-2.832-.277-.289 1.675-5.082 6.215 6.457zM22.172 6.828l-9.785 12.106-6.633-6.895L17.426 1.848c.683-.715 2.824-1.528 4.547.203 1.254 1.265 1.32 3.383.199 4.777zm0 0"/>
</svg>
